X: 1
T: Coral Riff
C: Pete Sutherland
R: march
S: Fiddle Hell handout 2020-4-14
Z: 2021 John Chambers <jc:trillian.mit.edu>
M: 2/4
L: 1/16
K: Em
"^A"|:\
"Em"E4 D2E2 | B,2D2 E2G2- | "D"G2A2 D2E2 | B,2A,2 A,4 |\
"Em"E4 D2E2 | B,2D2 EFG2 | "Am"A3G "D"FED2 | "Em"E8 :|
"^B1"[|\
"C"B4 A2G2 | B4 E2G2 | "Em"B2A2 A4- | A2G2 FGA2 |\
"C"B4 A2G2 | B4 E2G2 | "D"A3G FED2 | "Em"E8 ||
"^B2"||\
"C"B4 A2G2 | B4 E2G2 | "D"B2A2 A4- | A2G2 FGA2 |\
"C"E4 D2E2 | "Bm"B,2D2 EFG2 | "C"A3G "D"FED2 | "Em"E8 |]
